svgs/duotone/bed-front.svg

<svg xmlns="http://www.w3.org/2000/svg" viewBox="0 0 512 512"><!--! Font Awesome Pro 6.4.0 by @fontawesome - https://fontawesome.com License - https://fontawesome.com/license (Commercial License) Copyright 2023 Fonticons, Inc. --><defs><style>.fa-secondary{opacity:.4}</style></defs><path class="fa-primary" d="M32 80c0-26.5 21.5-48 48-48H432c26.5 0 48 21.5 48 48V232.6c-9.4-5.4-20.3-8.6-32-8.6H432V160c0-17.7-14.3-32-32-32H304c-17.7 0-32 14.3-32 32v64H240V160c0-17.7-14.3-32-32-32H112c-17.7 0-32 14.3-32 32v64H64c-11.7 0-22.6 3.1-32 8.6V80zm0 272H480h32v32 64c0 17.7-14.3 32-32 32s-32-14.3-32-32V416H64v32c0 17.7-14.3 32-32 32s-32-14.3-32-32V384 352H32z"/><path class="fa-secondary" d="M0 288c0-35.3 28.7-64 64-64H448c35.3 0 64 28.7 64 64v32 32H480 32 0V320 288z"/></svg>

<svg xmlns="http://www.w3.org/2000/svg" viewBox="0 0 512 512"><!--! Font Awesome Pro 6.3.0 by @fontawesome - https://fontawesome.com License - https://fontawesome.com/license (Commercial License) Copyright 2023 Fonticons, Inc. --><defs><style>.fa-secondary{opacity:.4}</style></defs><path class="fa-primary" d="M32 80C32 53.49 53.49 32 80 32H432C458.5 32 480 53.49 480 80V232.6C470.6 227.1 459.7 224 448 224H432V160C432 142.3 417.7 128 400 128H304C286.3 128 272 142.3 272 160V224H240V160C240 142.3 225.7 128 208 128H112C94.33 128 80 142.3 80 160V224H64C52.34 224 41.41 227.1 32 232.6V80zM512 352V448C512 465.7 497.7 480 480 480C462.3 480 448 465.7 448 448V416H64V448C64 465.7 49.67 480 32 480C14.33 480 0 465.7 0 448V352H512z"/><path class="fa-secondary" d="M0 288C0 252.7 28.65 224 64 224H448C483.3 224 512 252.7 512 288V352H0V288z"/></svg>
